icons/svg/spellcheck.svg

<svg xmlns="http://www.w3.org/2000/svg" version="1.1" baseProfile="full" width="24" height="24" viewBox="0 0 24.00 24.00" xml:space="preserve"><path fill="#000" fill-opacity="1" stroke-linejoin="round" d="M21.59 11.59l-8.09 8.09L9.83 16l-1.41 1.41 5.09 5.09L23 13M6.43 11L8.5 5.48 10.57 11m1.88 5h2.09L9.43 3H7.57L2.46 16h2.09l1.12-3h5.64l1.14 3z"/></svg>

﻿<?xml version="1.0" encoding="utf-8"?>
<!DOCTYPE svg PUBLIC "-//W3C//DTD SVG 1.1//EN" "http://www.w3.org/Graphics/SVG/1.1/DTD/svg11.dtd">
<svg xmlns="http://www.w3.org/2000/svg" xmlns:xlink="http://www.w3.org/1999/xlink" version="1.1" baseProfile="full" width="24" height="24" viewBox="0 0 24.00 24.00" enable-background="new 0 0 24.00 24.00" xml:space="preserve">
	<path fill="#000000" fill-opacity="1" stroke-linejoin="round" d="M 21.59,11.59L 13.5,19.68L 9.83,16L 8.42,17.41L 13.51,22.5L 23,13M 6.43,11L 8.5,5.48L 10.57,11M 12.45,16L 14.54,16L 9.43,3L 7.57,3L 2.46,16L 4.55,16L 5.67,13L 11.31,13L 12.45,16 Z "/>
</svg>
